!!!!SEGMENT: sonata09-3.krn
!!!COM: Beethoven, Ludwig van
!!!CDT: 1770///-1827///
!!!OTL: Piano Sonata no. 9 in E major
!!!OPS: 14
!!!ONM: 1
!!!OMV: 3
!!!OMD: RONDO\nAllegro commodo
**kern	**kern	**dynam
*staff2	*staff1	*staff1/2
*Ipiano	*Ipiano	*
*clefF4	*clefG2	*
*k[f#c#g#d#]	*k[f#c#g#d#]	*
*kcancel	*kcancel	*
*E:	*E:	*
*M2/2	*M2/2	*
*MM132	*MM132	*
(12G#L	(4b	p
12B	.	.
12eJ)	.	.
*Xtuplet	*	*
12F#L	4d#\ 4dd#\	.
12A	.	.
12BJ	.	.
=1	=1	=1
12EL	2e\ 2ee\)	.
12G#	.	.
12BJ	.	.
12D#L	.	.
12F#	.	.
12BJ	.	.
12C#L	4e'\ (4ee'\	.
12E	.	.
12AJ	.	.
12BBL	4e'\ 4ee'\)	.
12D#	.	.
12G#J	.	.
=2	=2	=2
12AAL	4.f# (4.ff#	.
12C#	.	.
12F#J	.	.
12GG#L	.	.
12BB	.	.
.	8g# 8gg#)	.
12EJ	.	.
12FF#L	4a' 4aa'	.
12AA	.	.
12D#J	.	.
12EEL	4a' 4aa'	.
12GG#	.	.
12C#J	.	.
=3	=3	=3
12DD#L	4a' 4aa'	<
12FF#	.	.
12BBJ	.	.
12EEL	4a' 4aa'	.
12GG#	.	.
12BBJ	.	.
12DD#L	4a' 4aa'	.
12FF#	.	.
12BBJ	.	.
12CC#L	4a' 4aa'	.
12EE	.	.
12BBJ	.	.
!!LO:LB:g=original
=4	=4	=4
*^	*	*
(4DD#	2BBB	2a 2aa	f
4BB)	.	.	.
2r	2ryy	(16aaLL	p
.	.	16gg#	.
.	.	16ff#	.
.	.	16eeJJ	.
.	.	16dd#LL	.
.	.	16cc#	.
.	.	16b	.
.	.	16aJJ)	.
=5	=5	=5	=5
*	*	*^	*
4r	2E	(4g#	2g#	.
2B	.	2b	.	sf
.	2BB	.	2d#	.
4A	.	8.f#L	.	.
.	.	16g#Jk	.	.
=6	=6	=6	=6	=6
(4G#	2E	4e	4e)	.
4B)	.	4r	2.ryy	.
2r	2r	(16aLL	.	p
.	.	16g#	.	.
.	.	16f#	.	.
.	.	16eJJ	.	.
.	.	16d#LL	.	.
.	.	16c#	.	.
.	.	16B	.	.
.	.	16AJJ)	.	.
*	*	*v	*v	*
*	*	*clefF4	*
=7	=7	=7	=7
*	*	*^	*
4r	2EE	(4G#	2G#	.
2BB	.	2B	.	sf
.	2BBB	.	2D#	.
4AA	.	8.F#L	.	.
.	.	16G#Jk	.	.
*v	*v	*	*	*
=8	=8	=8	=8
(4EE 4GG#	4E)	4E	.
*	*v	*v	*
4E')	4r	.
*	*clefG2	*
12G#L	(4b	p
12B	.	.
12eJ	.	.
12F#L	4d#\ 4dd#\	.
12A	.	.
12BJ	.	.
!!LO:LB:g=original
=9	=9	=9
12EL	2e\ 2ee\)	.
12G#	.	.
12BJ	.	.
12D#L	.	.
12F#	.	.
12BJ	.	.
12C#L	4e'\ 4ee'\	.
12E	.	.
12AJ	.	.
12BBL	4e'\ 4ee'\	.
12D#	.	.
12G#J	.	.
=10	=10	=10
12AAL	4.f# (4.ff#	.
12C#	.	.
12F#J	.	.
12GG#L	.	.
12BB	.	.
.	8g# 8gg#)	.
12EJ	.	.
12FF#L	4a' 4aa'	.
12AA	.	.
12D#J	.	.
12EEL	4a' 4aa'	.
12GG#	.	.
12C#J	.	.
=11	=11	=11
12DD#L	4a' 4aa'	<
12FF#	.	.
12BBJ	.	.
12EEL	4a' 4aa'	.
12GG#	.	.
12BBJ	.	.
12DD#L	4a' 4aa'	.
12FF#	.	.
12BBJ	.	.
12CC#L	4a' 4aa'	.
12EE	.	.
12BBJ	.	.
=12	=12	=12
*^	*	*
(4DD#	2BBB	2a 2aa	f
4BB)	.	.	.
2r	2ryy	(16aaLL	p
.	.	16gg#	.
.	.	16ff#	.
.	.	16eeJJ	.
.	.	16dd#LL	.
.	.	16cc#	.
.	.	16b	.
.	.	16aJJ)	.
!!LO:LB:g=original
=13	=13	=13	=13
*	*	*^	*
4r	2E	(4g#	2g#	.
2B	.	2b	.	sf
.	2BB	.	2d#	.
4A	.	8.f#L	.	.
.	.	16g#Jk	.	.
=14	=14	=14	=14	=14
4G#	4E	4e)	4e	.
2.ryy	4r	4r	2.ryy	.
.	(16eLL	2r	.	.
.	16d#	.	.	.
.	16c#	.	.	.
.	16BJJ	.	.	.
.	16A#LL	.	.	.
.	16G#	.	.	.
.	16F#	.	.	.
.	16EJJ)	.	.	.
*v	*v	*	*	*
*	*v	*v	*
=15	=15	=15
(4D#	2r	.
4F#	.	.
4AA#	(16eeLL	.
.	16dd#	.
.	16cc#	.
.	16bJJ	.
4F#)	16a#LL	.
.	16g#	.
.	16f#	.
.	16eJJ)	.
=16	=16	=16
2BB	(4d#	.
.	4f#	.
(16ELL	4A#	.
16D#	.	.
16C#	.	.
16BBJJ	.	.
16AA#LL	4f#)	.
16GG#	.	.
16FF#	.	.
16EEJJ)	.	.
=17	=17	=17
(4DD#	2B	.
4FF#	.	.
4AAA#	(>16eLL	.
.	16d#	.
.	16c#	.
.	16BJJ	.
4FF#/)	16A#<LL	.
.	16G#<	.
.	16F#<	.
.	16E<JJ)	.
*^	*	*
!!LO:LB:g=original
=18	=18	=18	=18
4BBB/	2BBB	(16D#<LL	.
!	!	!	!LO:HP:b=2
.	.	16E<	<
.	.	16F#<	.
.	.	16G#<JJ	.
4BB	.	16A#<LL	.
.	.	16B<	.
.	.	16c#<	.
.	.	16d#<JJ)	.
*	*^	*	*
(4C#	2CC#	2C#	2e	sf
4BB)	.	.	.	.
=19	=19	=19	=19	=19
(<4D#\	2DD#\	2D#\	(16f#LL	.
.	.	.	16g#	.
.	.	.	16a#	.
.	.	.	16bJJ	.
4BB\)	.	.	16cc#LL	.
.	.	.	16dd#	.
.	.	.	16ee	.
.	.	.	16ff#JJ)	.
(<4E\	2EE	2E	2gg#	sf
4BB\)	.	.	.	.
*	*v	*v	*	*
*v	*v	*	*
=20	=20	=20
4FF# 4F#	(8aa#tL	f
.	16gg#L	.
.	16aa#JJ)	.
4GG#' 4G#'	4bb'	.
4EE' 4E'	(8cc#TL	.
.	16b#L	.
.	16cc#JJ)	.
4FF#' 4F#'	4ff#'	.
=21	=21	=21
4BBB' 4BB'	4bn'	.
4r	4r	.
!	!	!LO:DY:b
2r	(2bb	p
=22	=22	=22
1r	2b	.
.	2f##)	.
=23	=23	=23
*	*^	*
2r	[2g#	2ryy	.
4r	(2cc#	2e 2g#]	.
4E'	.	.	.
!!LO:LB:g=original
=24	=24	=24	=24
4r	2b)	2d# 2f#	.
4F#'	.	.	.
4r	(8bL	2c# 2e	.
.	8a#	.	.
4FF#'	8g#	.	.
.	8a#J)	.	.
=25	=25	=25	=25
4r	2b	2B 2d#	.
4BBB' 4BB'	.	.	.
2r	4bb'	2ryy	pp
.	(4bb	.	.
*	*v	*v	*
=26	=26	=26
1r	4b')	.
.	(4b	.
.	4f##')	.
.	(4f##	.
=27	=27	=27
*	*^	*
2r	[2g#)	2ryy	.
4r	(2cc#	2e 2g#]	.
4E'	.	.	.
=28	=28	=28	=28
4r	2b)	2d# 2f#	.
4F#'	.	.	.
4r	(8bL	2c# 2e	.
.	8a#	.	.
4FF#'	8g#	.	.
.	8a#J)	.	.
*	*v	*v	*
=29	=29	=29
4r	2B 2d# 2b	>
4BB'	.	.
4r	2B 2c# 2e 2b	.
4AA#' 4A#'	.	]
=30	=30	=30
4r	2B; 2d#; 2f#; 2b;	pp
4AAn; 4An;	.	.
12G#L	(4b	p
12B	.	.
12eJ	.	.
12F#L	4d#\ 4dd#\	.
12A	.	.
12BJ	.	.
!!LO:LB:g=original
=31	=31	=31
12EL	2e\ 2ee\)	.
12G#	.	.
12BJ	.	.
12D#L	.	.
12F#	.	.
12BJ	.	.
12C#L	4e'\ 4ee'\	.
12E	.	.
12AJ	.	.
12BBL	4e'\ 4ee'\	.
12D#	.	.
12G#J	.	.
=32	=32	=32
12AAL	4.f# (4.ff#	.
12C#	.	.
12F#J	.	.
12GG#L	.	.
12BB	.	.
.	8g# 8gg#)	.
12EJ	.	.
12FF#L	4a' 4aa'	.
12AA	.	.
12D#J	.	.
12EEL	4a' 4aa'	.
12GG#	.	.
12C#J	.	.
=33	=33	=33
12DD#L	4a' 4aa'	<
12FF#	.	.
12BBJ	.	.
12EEL	4a' 4aa'	.
12GG#	.	.
12BBJ	.	.
12DD#L	4a' 4aa'	.
12FF#	.	.
12BBJ	.	.
12CC#L	4a' 4aa'	.
12EE	.	.
12BBJ	.	.
=34	=34	=34
*^	*	*
(4DD#	2BBB	2a 2aa	f
4BB)	.	.	.
2r	2ryy	(16aaLL	p
.	.	16gg#	.
.	.	16ff#	.
.	.	16eeJJ	.
.	.	16dd#LL	.
.	.	16cc#	.
.	.	16b	.
.	.	16aJJ)	.
!!LO:LB:g=original
=35	=35	=35	=35
*	*	*^	*
4r	2E	(4g#	2g#	.
2B	.	2b	.	sf
.	2BB	.	2d#	.
4A	.	8.f#L	.	.
.	.	16g#Jk)	.	.
=36	=36	=36	=36	=36
(4G#	2E	4e	4e	.
4B)	.	4r	2.ryy	.
2r	2ryy	(16aLL	.	.
.	.	16g#	.	.
.	.	16f#	.	.
.	.	16eJJ	.	.
.	.	16d#LL	.	.
.	.	16c#	.	.
.	.	16B	.	.
.	.	16AJJ)	.	.
*	*	*v	*v	*
*	*	*clefF4	*
=37	=37	=37	=37
*	*	*^	*
4r	2EE	(4G#	2G#	.
2BB	.	2B	.	sf
.	2BBB	.	2D#	.
4AA	.	8.F#L	.	.
.	.	16G#Jk)	.	.
*v	*v	*	*	*
=38	=38	=38	=38
(4EE 4GG#	4E	4E	.
*	*v	*v	*
4E')	4r	.
*	*clefG2	*
12GnL	(>4b	p
12B	.	.
12eJ	.	.
12F#L	4d#\ 4dd#\	.
12A	.	.
12BJ	.	.
=39	=39	=39
12EL	2e\ 2ee\)	.
12Gn	.	.
12BJ	.	.
12DnL	.	.
12F#	.	.
12BJ	.	.
12CnL	4e'\ 4ee'\	.
12E	.	.
12AJ	.	.
12BBL	4e'\ 4ee'\	.
12D	.	.
12GJ	.	.
!!LO:LB:g=original
=40	=40	=40
12AAL	4.f# (4.ff#	.
12Cn	.	.
12F#J	.	.
12GGnL	.	.
12BB	.	.
.	8gn 8ggn)	.
12EJ	.	.
12FF#L	4a' 4aa'	.
12AA	.	.
12DnJ	.	.
12EEL	4b' 4bb'	.
12GG	.	.
12DJ	.	.
=41	=41	=41
12DDnL	4ccn' 4cccn'	<
12FF#	.	.
12DnJ	.	.
12GGnL	4cc' 4ccc'	.
12BB	.	.
12DJ	.	.
12FF#L	4cc' 4ccc'	.
12AA	.	.
12DJ	.	.
12EEL	4cc' 4ccc'	.
12GG	.	.
12DJ	.	[
=42	=42	=42
*^	*	*
(4FF#	1DDn	2ccn 2cccn	f
2.Dnz<)	.	.	.
.	.	(16cccLL	.
.	.	16bb	.
.	.	16aa	.
.	.	16ggnJJ	.
.	.	16ff#LL	.
.	.	16ee	.
.	.	16ddn	.
.	.	16ccnJJ)	.
=43	=43	=43	=43
*	*	*^	*
(4DDn	1DD	[2ggn	(2b	sf
2.Dnz<)	.	.	.	.
.	.	(16ggLL]	4cc#X)	.
.	.	16ff#	.	.
.	.	16ee	.	.
.	.	16ddnJJ	.	.
.	.	16cc#LL	4ryy	.
.	.	16b	.	.
.	.	16a	.	.
.	.	16gnJJ)	.	.
*	*	*v	*v	*
!!LO:LB:g=original
=44	=44	=44	=44
(4DDn	1DD	2f# 2ddn	sf
2.Dnz<)	.	.	.
.	.	(16ccnLL	.
.	.	16b	.
.	.	16a	.
.	.	16gnJJ	.
.	.	16f#LL	.
.	.	16e	.
.	.	16dn	.
.	.	16cnJJ)	.
=45	=45	=45	=45
*	*	*^	*
(4DDn	1DD	[2gn	(2B	sf
2.Dnz<)	.	.	.	.
.	.	(16gLL]	4c#X)	.
.	.	16f#	.	.
.	.	16e	.	.
.	.	16dnJJ	.	.
.	.	16c#LL	4ryy	.
.	.	16B	.	.
.	.	16A	.	.
.	.	16GnJJ)	.	.
*v	*v	*	*	*
*	*v	*v	*
*	*clefF4	*
=46	=46	=46
4DDn	(16F#LL	.
.	16Gn	.
.	16A	.
.	16BJJ	.
4r	16cnLL	.
.	16B	.
.	16A	.
.	16GJJ	.
2r	16F#LL	.
.	16G	.
.	16F#	.
.	16EJJ	.
.	16DnLL<	.
.	16Cn	.
.	16BB	.
.	16AAJJ)	.
!!LO:LB:g=original
=47||	=47||	=47||
*k[f#]	*k[f#]	*
*	*Xbrackettup	*
4GGG' 4GG'	12r	f
.	12BBL<	.
.	12DJ	.
4r	12GL	.
.	12D	.
.	12BBJ	.
2r	12B'L	.
.	12D	.
.	12GJ	.
.	12BL	.
.	12G	.
.	12DJ	.
=48	=48	=48
*	*Xtuplet	*
2r	12d'L	.
.	12G	.
.	12BJ	.
.	12dL	.
.	12B	.
.	12GJ	.
*	*clefG2	*
4r	12g'L	.
.	12d	.
.	12BJ	.
!	!	!LO:DY:b=2:rj
4DD' 4D'	12f#'L	f
.	12c	.
.	12AJ	.
=49	=49	=49
4GG' 4G'	12g'L	.
.	12B	.
.	12dJ	.
4r	12gL	.
.	12d	.
.	12BJ	.
2r	12b'L	.
.	12d	.
.	12gJ	.
.	12bL	.
.	12g	.
.	12dJ	.
=50	=50	=50
2r	12dd'L	.
.	12g	.
.	12bJ	.
.	12ddL	.
.	12b	.
.	12gJ	.
4r	12dd'L	.
.	12b	.
.	12g#J	.
!	!	!LO:DY:rj:b=2
4EE' 4E'	12b'L	f
.	12g#	.
.	12dJ	.
!!LO:LB:g=original
=51	=51	=51
4AA'/ 4A'/	12a'L	.
.	12c	.
.	12eJ	.
4r	12aL	.
.	12e	.
.	12cJ	.
2r	12cc'L	.
.	12e	.
.	12aJ	.
.	12ccL	.
.	12a	.
.	12eJ	.
=52	=52	=52
2r	12ee'L	.
.	12a	.
.	12ccJ	.
.	12eeL	.
.	12cc	.
.	12aJ	.
4r	12aa'L	.
.	12ee	.
.	12ccJ	.
4EE' 4E'	12gg#'L	.
.	12dd	.
.	12bJ	.
=53	=53	=53
4AA'/ 4A'/	12aa'L	.
.	12cc	.
.	12eeJ	.
4r	12aaL	.
.	12ee	.
.	12ccJ	.
2r	12ccc'L	.
.	12ee	.
.	12aaJ	.
.	12cccL	.
.	12aa	.
.	12eeJ	.
=54	=54	=54
2r	12eee'L	.
.	12aa	.
.	12cccJ	.
.	12eeeL	.
.	12ccc	.
.	12aaJ	.
4r	12eee'L	.
.	12ccc#	.
.	12aa#J	.
4F#' 4f#'	12ccc#L	p
.	12aa#	.
.	12eeJ	.
*clefG2	*	*
!!LO:LB:g=original
=55	=55	=55
4B' 4b'	12bb'L	.
.	12ff#	.
.	12ddJ	.
4Gn' 4gn'	12bbL	.
.	12ggn	.
.	12ddJ	.
*clefF4	*	*
4E' 4e'	12bbL	.
.	12gg	.
.	12cc#J	.
4F#' 4f#'	12aa#L	.
.	12ff#	.
.	12cc#J	.
=56	=56	=56
4BB' 4B'	12bbL	.
.	12ff#	.
.	12ddJ	.
4r	12ff#L	.
.	12dd	.
.	12bJ	.
4r	12ff#L	.
.	12dd	.
.	12bJ	.
4FF#' 4F#'	12ff#L	.
.	12cc#	.
.	12a#J	.
=57	=57	=57
4BB' 4B'	12ff#L	.
.	12dd	.
.	12bJ	.
4GG' 4G'	12ggL	.
.	12dd	.
.	12bJ	.
4EE' 4E'	12ggL	.
.	12cc#	.
.	12bJ	.
4FF#' 4F#'	12ff#L	.
.	12cc#	.
.	12a#J	.
=58	=58	=58
[1BBB [1BB	4r	f
.	12ff#L	.
.	12dd	.
.	12bJ	.
.	12bb'L	.
.	12ff#	.
.	12ddJ	.
.	12bL	.
.	12f#	.
.	12dJ	.
!!LO:LB:g=original
=59	=59	=59
1BBB] 1BB]	12b'L	.
.	12f#	.
.	12dJ	.
*	*clefF4	*
.	12BL	.
.	12F#	.
.	12DJ	.
.	12B'L	.
.	12F#	.
.	12DJ	.
.	12BBL	.
.	12D	.
.	12F#J	.
=60	=60	=60
[1AAA [1AA	4r	.
*	*clefG2	*
.	12ff#L	.
.	12dd	.
.	12ccnJ	.
.	12ccc'L	.
.	12ff#	.
.	12ddJ	.
.	12ccL	.
.	12f#	.
.	12dJ	.
=61	=61	=61
1AAA] 1AA]	12cc'L	.
.	12f#	.
.	12dJ	.
*	*clefF4	*
.	12cL	.
.	12F#	.
.	12DJ	.
.	12c'L	.
.	12F#	.
.	12DJ	.
.	12CL	.
.	12D	.
.	12F#J	.
*	*clefG2	*
=62	=62	=62
[1GGG [1GG	4r	.
.	12ggL	.
.	12dd	.
.	12bJ	.
.	12bb'L	.
.	12gg	.
.	12ddJ	.
.	12bL	.
.	12g	.
.	12dJ	.
!!LO:LB:g=original
=63	=63	=63
1GGG] 1GG]	12b'L	.
.	12g	.
.	12dJ	.
*	*clefF4	*
.	12BL	.
.	12G	.
.	12DJ	.
.	12B'L	.
.	12G	.
.	12DJ	.
.	12BBL	.
.	12D	.
.	12GJ	.
=64	=64	=64
[1FFF# [1FF#	4r	.
*	*clefG2	*
.	12dd#L	.
.	12b	.
.	12aJ	.
.	12aa'L	.
.	12dd#	.
.	12bJ	.
.	12aL	.
.	12d#	.
.	12BJ	.
=65	=65	=65
1FFF#] 1FF#]	12a'L	.
.	12d#	.
.	12BJ	.
*	*clefF4	*
.	12AL	.
.	12D#	.
.	12BBJ	.
.	12A'L	.
.	12D#	.
.	12BBJ	.
.	12AAL	.
.	12BB	.
.	12D#J	.
=66	=66	=66
4EEE 4EE	12r	.
.	12GGL	p
.	12BBJ	.
4r	12EL	.
.	12BB	.
.	12GGJ	.
2r	12G'L	.
.	12BB	.
.	12EJ	.
.	12GL	.
.	12E	.
.	12BBJ	.
!!LO:LB:g=original
=67	=67	=67
2r	12B'L	.
.	12E	.
.	12GJ	.
.	12BL	.
.	12G	.
.	12EJ	.
4r	12e'L	.
.	12B	.
.	12GJ	.
4BBB' 4BB'	12d#'L	.
.	12A	.
.	12F#J	.
=68	=68	=68
4EE' 4E'	12e'L	.
.	12G	.
.	12BJ	.
4r	12eL	.
.	12B	.
.	12GJ	.
*	*clefG2	*
2r	12g'L	.
.	12B	.
.	12eJ	.
.	12gL	.
.	12e	.
.	12BJ	.
=69	=69	=69
2r	12b'L	.
.	12e	.
.	12gJ	.
.	12bL	.
.	12g	.
.	12eJ	.
4r	12ee'L>	.
.	12b	.
.	12gJ	.
4BB' 4B'	12dd#'L	.
.	12a	.
.	12f#J	.
=70	=70	=70
4C' 4c'	12ee'L	.
.	12g	.
.	12eJ	.
4r	12ccL	.
.	12g	.
.	12eJ	.
4r	12ccL	.
.	12fn	.
.	12dJ	.
4GG#'\ 4G#'\	12b'L	.
.	12f	.
.	12dJ	.
!!LO:LB:g=original
=71	=71	=71
4AA'/ 4A'/	12cc'L	.
.	12e	.
.	12cJ	.
4r	12aL	.
.	12e	.
.	12cJ	.
4r	12aL	.
.	12e	.
.	12cJ	.
4AAA' 4AA'	12f#XL	.
.	12e	.
.	12cJ	.
=72	=72	=72
4BBB' 4BB'	12r	.
.	12BL	.
.	12eJ	.
4r	12gL	.
.	12e	.
.	12BJ	.
4BBB' 4BB'	12r	.
.	12AL	.
.	12d#J	.
4r	12f#L	.
.	12d#	.
.	12AJ	.
=73	=73	=73
4CC' 4C'	12r	.
.	12eL	.
.	12gJ	.
4r	12eeL	>
.	12g	.
.	12eJ	.
4r	12ccL	.
.	12fn	.
.	12dnJ	.
4GGG#' 4GG#'	12bL	.
.	12f	.
.	12dJ	.
=74	=74	=74
4AAA' 4AA'	12r	.
.	12cL	.
.	12eJ	.
4r	12ccL	.
.	12e	.
.	12cJ	.
4r	12aL	.
.	12e	.
.	12cJ	.
4AAA' 4AA'	12f#XL	.
.	12e	.
.	12cJ	.
!!LO:LB:g=original
=75	=75	=75
4AAA#' 4AA#'	12r	.
.	12c#L	.
.	12eJ	.
4r	12gL	.
.	12e	.
.	12c#J	.
4AAA#' 4AA#'	12r	.
.	12GL	.
.	12c#J	.
4r	12eL	.
.	12c#	.
.	12GJ	.
=76	=76	=76
1BBB 1BB	4r	.
.	12d#L	.
.	12B	.
.	12F#J	.
.	12f#L	.
.	12d#	.
.	12BJ	.
.	12bL	.
.	12f#	.
.	12d#J	.
=77	=77	=77
1BBB 1BB	4r	.
.	12gL	.
.	12e	.
.	12BJ	.
.	12eL	.
.	12B<	.
.	12G<J	.
.	12B<L	.
.	12G<	.
.	12E<J	.
=78	=78	=78
1BBB 1BB	4r	.
.	12d#L	.
.	12B	.
.	12F#J	.
.	12f#L	.
.	12d#	.
.	12BJ	.
.	12bL	.
.	12f#	.
.	12d#J	.
!!LO:LB:g=original
=79	=79	=79
1BBB 1BB	4r	.
.	12gL	.
.	12e	.
.	12BJ	.
.	12eL	.
.	12B	.
.	12GJ	.
*	*clefF4	*
.	12BL	.
.	12G	.
.	12EJ	.
=80	=80	=80
[1BBB	12BBL	.
.	12Cn	.
.	12C#J	.
.	12DnL	<
.	12D#	.
.	12EJ	.
.	12E#L	.
.	12F#	.
.	12GJ	.
.	12G#L	.
.	12A	.
.	12A#J	.
*	*clefG2	*
=81	=81	=81
1BBB_ [1BB	12BL	.
.	12cn	.
.	12c#J	.
.	12dnL	.
.	12d#	.
.	12eJ	.
.	12e#L	.
.	12f#	.
.	12gnJ	.
.	12g#L	.
.	12an	.
.	12a#J	.
=82	=82	=82
1BBB_ 1BB_	12bL	>
.	12ccn	.
.	12cc#J	.
.	12ddnL	.
.	12dd#	.
.	12eenJ	.
.	12ee#L	.
.	12ff#	.
.	12ggnJ	.
.	12gg#L	.
.	12aan	.
.	12aa#J	.
!!LO:LB:g=original
=83	=83	=83
2BBB;] 2BB;]	2bb;	p
=||	=||	=||
*k[f#c#g#d#]	*k[f#c#g#d#]	*
12G#L	(4b	p
12B	.	.
12eJ	.	.
12F#L	4d#\ 4dd#\	.
12A	.	.
12BJ	.	.
=84	=84	=84
12EL	2e\ 2ee\)	.
12G#	.	.
12BJ	.	.
12D#L	.	.
12F#	.	.
12BJ	.	.
12C#L	4e'\ 4ee'\	.
12E	.	.
12AJ	.	.
12BBL	4e'\ 4ee'\	.
12D#	.	.
12G#J	.	.
=85	=85	=85
12AAL	4.f# (4.ff#	.
12C#	.	.
12F#J	.	.
12GG#L	.	.
12BB	.	.
.	8g# 8gg#)	.
12EJ	.	.
12FF#L	4a' 4aa'	.
12AA	.	.
12D#J	.	.
12EEL	4a' 4aa'	.
12GG#	.	.
12C#J	.	.
=86	=86	=86
12DD#L	4a' 4aa'	<
12FF#	.	.
12BBJ	.	.
12EEL	4a' 4aa'	.
12GG#	.	.
12BBJ	.	.
12DD#L	4a' 4aa'	.
12FF#	.	.
12BBJ	.	.
12CC#L	4a' 4aa'	.
12EE	.	.
12BBJ	.	.
!!LO:LB:g=original
=87	=87	=87
*^	*	*
(4DD#	2BBB	2a 2aa	f
4BB)	.	.	.
2r	2ryy	(16aaLL	p
.	.	16gg#	.
.	.	16ff#	.
.	.	16eeJJ	.
.	.	16dd#LL	.
.	.	16cc#	.
.	.	16b	.
.	.	16aJJ)	.
=88	=88	=88	=88
*	*	*^	*
4r	2E	(4g#	2g#	.
2B	.	2b	.	sf
.	2BB	.	2d#	.
4A	.	8.f#L	.	.
.	.	16g#Jk	.	.
=89	=89	=89	=89	=89
(4G#	4E	4e	4e)	.
4B)	4r	4r	2.ryy	.
2r	2r	(16aLL	.	.
.	.	16g#	.	.
.	.	16f#	.	.
.	.	16eJJ	.	.
.	.	16d#LL	.	.
.	.	16c#	.	.
.	.	16B	.	.
.	.	16AJJ)	.	.
*	*	*v	*v	*
*	*	*clefF4	*
=90	=90	=90	=90
*	*	*^	*
4r	2EE	(4G#	2G#	.
2BB	.	2B	.	sf
.	2BBB	.	2D#	.
4AA	.	8.F#L	.	.
.	.	16G#Jk)	.	.
*v	*v	*	*	*
*	*v	*v	*
=91	=91	=91
4EE (4GG#	4E	.
4E')	4r	.
!	!	!LO:DY:b=2
(16dnLL	2r	p
16c#	.	.
16B	.	.
16AJJ	.	.
16G#LL	.	.
16F#	.	.
16E	.	.
16DnJJ)	.	.
*	*clefG2	*
!!LO:LB:g=original
=92	=92	=92
(4C#	2r	.
4E	.	.
4GG#	(16dddnLL	.
.	16ccc#	.
.	16bb	.
.	16aaJJ	.
4E)	16gg#LL	.
.	16ff#	.
.	16ee	.
.	16ddnJJ)	.
=93	=93	=93
2AA	(4cc#	.
.	4ee	.
(16DnLL	4g#	.
16C#	.	.
16BB	.	.
16AAJJ	.	.
16GG#LL	4ee)	.
16FF#	.	.
16EE	.	.
16DDnJJ)	.	.
=94	=94	=94
*^	*	*
(>4CC#	2ryy	2a	.
4EE	.	.	.
*	*	*clefF4	*
4GGG#	2GGG#	(16dnLL	.
.	.	16c#	.
.	.	16B	.
.	.	16AJJ	.
4EE)	.	16G#LL	.
.	.	16F#	.
.	.	16E	.
.	.	16DnJJ)	.
=95	=95	=95	=95
4AAA	2AAA	(16C#LL	<
.	.	16Dn	.
.	.	16E	.
.	.	16F#JJ	.
4AA	.	16G#LL	.
.	.	16A	.
.	.	16B	.
.	.	16c#JJ)	.
(4BB	2BBB 2BB	2dn	sf
4AA)	.	.	.
*	*	*clefG2	*
!!LO:LB:g=original
=96	=96	=96	=96
4C#	2CC# (2C#	(16eLL	.
.	.	16f#	.
.	.	16g#	.
.	.	16aJJ	.
4AA)	.	16bLL	.
.	.	16cc#	.
.	.	16ddn	.
.	.	16eeJJ)	.
(4Dn	2DDn 2Dn	2ff#	sf
4AA)	.	.	.
*v	*v	*	*
=97	=97	=97
4EE' 4E'	(8gg#tL	f
.	16ff#L	.
.	16gg#JJ)	.
4FF#' 4F#'	4aa'	.
4DDn' 4Dn'	(8bTL<	.
.	16a#L	.
.	16bJJ)	.
4EE' 4E'	4ee'	.
=98	=98	=98
4AAA 4AA	4an	.
4r	4r	.
2r	(2aa	p
=99	=99	=99
1r	2a	.
.	2e#)	.
=100	=100	=100
*	*^	*
2r	(>[2f#	2ryy	.
4r	2b	2dn 2f#]	.
!	!	!	!LO:DY:rj:b=2
4Dn'	.	.	p
*	*v	*v	*
=101	=101	=101
*	*^	*
4r	2a)	(2c# 2e	.
4E'	.	.	.
4r	(8aL	2B 2dn)	.
.	8g#	.	.
4EE'	8f#	.	.
.	8g#J)	.	.
*	*v	*v	*
!!LO:LB:g=original
=102	=102	=102
4AA'	4c# 4e 4a	.
4A'	4r	.
2r	4aa'	pp
.	(4aa	.
=103	=103	=103
1r	4a')	.
.	(4a	.
.	4e')	.
.	4e	.
=104	=104	=104
*	*^	*
2r	(>[>2fn	2ryy	.
4r	(2b-	2dn 2f_>	.
4FFn' 4Fn'	.	.	.
=105	=105	=105	=105
4r	2a)	2cn 2f]	.
4FFn' 4Fn'	.	.	.
4r	8aL	2B- 2e	.
.	8gn	.	.
4FF' 4F'	8fn	.	.
.	8gJ	.	.
*	*v	*v	*
=106	=106	=106
4r	2An 2cn 2fn	.
4FFn' 4Fn'	.	.
4r	2A 2e	.
4FF' 4F'	.	.
=107	=107	=107
4r	2A 2cn 2d#X)	pp
4FF#X' 4F#X'	.	.
4r	[2A [2B [2d#	.
4FF#' 4F#'	.	.
!!LO:LB:g=original
=108	=108	=108
2r;	2A;] 2B] 2d#]	.
*tuplet	*	*
(12G#L	8r	p
12B	.	.
.	4b	.
12eJ)	.	.
12F#L	.	.
12A	.	.
.	[8d#\ [8dd#\	.
12BJ	.	.
=109	=109	=109
*Xtuplet	*	*
12EL	8d#\] 8dd#\]	.
12G#	.	.
.	4e\ 4ee\	<
12BJ	.	.
12D#L	.	.
12F#	.	.
.	4e\ 4ee\	.
12BJ	.	.
12C#L	.	.
12E	.	.
.	4e\ 4ee\	.
12AJ	.	.
12BBL	.	.
12D#	.	.
.	[8e\ [8ee\	.
12G#J	.	.
=110	=110	=110
12AAL	8e\] 8ee\]	.
12C#	.	.
.	4f# 4ff#	.
12F#J	.	.
12GG#L	.	.
12BB	.	.
.	4g# 4gg#	.
12EJ	.	.
12FF#L	.	.
12AA	.	.
.	4a 4aa	.
12D#J	.	.
12EEL	.	.
12GG#	.	.
.	[8a [8aa	.
12C#J	.	.
=111	=111	=111
12DD#L	8a] 8aa]	<
12FF#	.	.
.	4a 4aa	.
12BBJ	.	.
12EEL	.	.
12GG#	.	.
.	4a 4aa	.
12BBJ	.	.
12DD#L	.	.
12FF#	.	.
.	4a 4aa	.
12BBJ	.	.
12CC#L	.	.
12EE	.	.
.	8a 8aa	.
12BBJ	.	[
!!LO:LB:g=original
=112	=112	=112
*^	*	*
(4DD#	2BBB	2a 2aa	.
4BB)	.	.	.
8r	2ryy	4a' 4aa'	ff
4BBB 4BB	.	.	.
.	.	4a' 4aa'	.
([8DD# [8D#	.	.	.
*v	*v	*	*
=113	=113	=113
8DD#] 8D#]	4g#' 4gg#'	.
4EE 4E	.	.
.	4f#' 4ff#'	.
4EE 4E	.	.
.	4e'\ 4ee'\	.
4EE 4E	.	.
.	4d#'\ 4dd#'\	.
[8EE [8E	.	.
=114	=114	=114
8EE]) 8E]	4c#' 4cc#'	.
4EE 4E	.	.
.	4B#' 4b#'	.
4EE 4E	.	.
.	4c#' 4cc#'	.
4EE 4E	.	.
.	4Bn' 4bn'	.
[8EE# [8E#	.	.
=115	=115	=115
8EE#] 8E#]	4A' 4a'	.
4FF# 4F#	.	.
.	4G#' 4g#'	.
4GG# 4G#	.	.
.	4f#'	.
4AA/ 4A/	.	.
.	4e'	.
[8AA/ [8A/	.	.
=116	=116	=116
8AA/] 8A/]	4d#'	.
4AA/ 4A/	.	.
.	4f#'	.
4AA/ 4A/	.	.
.	4a'	.
4AA/ 4A/	.	.
.	4ccn'/	.
8AA/ 8A/	.	.
!!LO:LB:g=original
=117	=117	=117
2AA/ 2A/	16d#LL	sf
.	16f#	.
.	16ccn	.
.	16dd#JJ	.
.	16d#LL	.
.	16f#	.
.	16cc	.
.	16dd#JJ	.
4CCn' 4Cn'	16d#LL	.
.	16f#	.
.	16a	.
.	16dd#JJ	.
4CC' 4C'	16d#LL	.
.	16f#	.
.	16a	.
.	16dd#JJ	.
=118	=118	=118
2CCn 2Cn	16d#LL	sf
.	16f#	.
.	16a	.
.	16dd#JJ	.
.	16d#LL	.
.	16f#	.
.	16a	.
.	16dd#JJ	.
4DD#X' 4D#X'	16cnLL	.
.	16f#	.
.	16a	.
.	16ccnJJ	.
4DD#' 4D#'	16cLL	.
.	16f#	.
.	16a	.
.	16ccJJ	.
=119	=119	=119
2DD# 2D#	16cnLL	sf
.	16f#	.
.	16a	.
.	16ccnJJ	.
.	16cLL	.
.	16f#	.
.	16a	.
.	16ccJJ	.
4FF#' 4F#'	16BLL	.
.	16d#	.
.	16a	.
.	16bJJ	.
4FF#' 4F#'	16BLL	.
.	16d#	.
.	16a	.
.	16bJJ	.
!!LO:LB:g=original
=120	=120	=120
4FF#' 4F#'	16BLL	>
.	16d#	.
.	16a	.
.	16bJJ	.
4FF#' 4F#'	16BLL	.
.	16d#	.
.	16a	.
.	16bJJ	.
4FF#' 4F#'	16BLL	.
.	16d#	.
.	16a	.
.	16bJJ	.
4FF#' 4F#'	16BLL	.
.	16d#	.
.	16a	.
.	16bJJ	.
=121	=121	=121
2FF#; 2F#;	2B 2d# 2a 2b	p
*tuplet	*	*
12G#L	(8bL	pp
12B	.	.
.	8cc#X	.
12eJ	.	.
12F#L	8ddn	.
12A	.	.
.	8dd#J	.
12BJ	.	.
=122	=122	=122
*Xtuplet	*	*
12EL	4ee')	.
12G#	.	.
12BJ	.	.
12D#L	4r	.
12F#	.	.
12BJ	.	.
12C#L	(8eL	.
12E	.	.
.	8f#	.
12AJ	.	.
12BBL	8gn	.
12D#	.	.
.	8g#J	.
12G#J	.	.
=123	=123	=123
12AAL	4a')	.
12C#	.	.
12F#J	.	.
12GG#L	4r	.
12BB	.	.
12EJ	.	.
12FF#L	(8eeL	<
12AA	.	.
.	8ff#	.
12D#J	.	.
12EEL	8ggn	.
12GG#	.	.
.	8gg#J	.
12C#J	.	.
!!LO:LB:g=original
=124	=124	=124
12DD#L	4aa')	.
12FF#	.	.
12BBJ	.	.
12EEL	4r	.
12GG#	.	.
12BBJ	.	.
12DD#L	(8aaL	.
12FF#	.	.
.	8gg#	.
12BBJ	.	.
12CC#L	8aa	.
12EE	.	.
.	8gg#J	.
12BBJ	.	.
=125	=125	=125
(4BBB 4DD#	4aa')	.
4BB)	4r	.
2r	(16aaLL	p
.	16gg#	.
.	16ff#	.
.	16eeJJ	.
.	16dd#LL	.
.	16cc#	.
.	16b	.
.	16aJJ)	.
=126	=126	=126
2r	(4g#	.
.	4b/	.
(16ALL	4d#	p
16G#	.	.
16F#	.	.
16EJJ	.	.
16D#LL<	4b/)	.
16C#	.	.
16BB	.	.
16AAJJ)	.	.
=127	=127	=127
(4GG#	2e	.
4BB	.	.
4DD#	(16aLL	.
.	16g#	.
.	16f#	.
.	16eJJ	.
4BB)	16d#LL	.
.	16c#	.
.	16B	.
.	16AJJ)	.
!!LO:LB:g=original
=128	=128	=128
*^	*	*
4EE	2EE	(16G#LL	.
.	.	16A	.
.	.	16B	.
.	.	16c#JJ	.
4E	.	16d#LL	<
.	.	16e	.
.	.	16f#	.
.	.	16g#JJ)	.
(4F#	2FF# 2F#	2a	sf
4E)	.	.	.
=129	=129	=129	=129
(4G#	2GG# 2G#	(16bLL	.
.	.	16cc#	.
.	.	16dd#	.
.	.	16eeJJ	.
4E)	.	16ff#LL	.
.	.	16gg#	.
.	.	16aa)	.
.	.	16bbJJ	.
(4A	2AA 2A	2ccc#	sf
4E)	.	.	.
=130	=130	=130	=130
(4c#	2C# 2c#	(4.aa#t	f
4E)	.	.	.
.	.	16gg##LL	.
.	.	16aa#JJ)	.
2ryy	4BB' 4B'	4bb'	.
.	4BB' 4B'	4b' 4bb'	.
*v	*v	*	*
=131	=131	=131
4EE' 4E'	4e'\ 4ee'\	.
4r	4r	.
2r	2r	.
==	==	==
*-	*-	*-
!!!RDF**kern: > = above
!!!RDF**kern: < = below
!!!verovio: beamFrenchStyle
!!!LOR: Durand 1915, plates 9327/9328, Paul Dukas, ed.
!!!PED: Dukas, Paul
!!!URL-github: https://github.com/craigsapp/beethoven-piano-sonatas/blob/main/kern/sonata09-3.krn
!!!URL-vhv: https://verovio.humdrum.org/?file=beethoven/sonatas/sonata09-3.krn
!!!URL-pdf: https://github.com/craigsapp/beethoven-piano-sonatas/blob/master/reference-edition/sonata09-3.pdf
!!!ENC: Craig Stuart Sapp
!!!END: 2006/08/01
!!!EED: Craig Stuart Sapp
!!!EEV: 2023/04/15
